www/assets/icons/restaurant_menu.svg

<svg width="24" height="24" viewBox="0 0 24 24" xmlns="http://www.w3.org/2000/svg" fill='currentColor'><path d="M7.79951 13.1285L10.6295 10.2985L3.60951 3.28853C2.04951 4.84853 2.04951 7.37853 3.60951 8.94853L7.79951 13.1285ZM14.5795 11.3185C16.1095 12.0285 18.2595 11.5285 19.8495 9.93853C21.7595 8.02853 22.1295 5.28853 20.6595 3.81853C19.1995 2.35853 16.4595 2.71853 14.5395 4.62853C12.9495 6.21853 12.4495 8.36853 13.1595 9.89853L3.39951 19.6585L4.80951 21.0685L11.6995 14.1985L18.5795 21.0785L19.9895 19.6685L13.1095 12.7885L14.5795 11.3185Z"/></svg>

<svg xmlns="http://www.w3.org/2000/svg" width="24" height="24" viewBox="0 0 24 24" fill='currentColor'><path d="m7.8 13.129 2.83-2.83-7.02-7.01a4.01 4.01 0 0 0 0 5.66zm6.78-1.81c1.53.71 3.68.21 5.27-1.38 1.91-1.91 2.28-4.65.81-6.12-1.46-1.46-4.2-1.1-6.12.81-1.59 1.59-2.09 3.74-1.38 5.27l-9.76 9.76 1.41 1.41 6.89-6.87 6.88 6.88 1.41-1.41-6.88-6.88z"/></svg>
